X:70
T:Primrose Gaol. LIT.070
M:6/8
Q:3/8=85
L:1/8
B:Wm. Litten MS, 1802
Z:Village Music Project 2017 Anne Wride
K:G
A | ddd d2e | ABc Bdc | BGG GEA | GFG A2 d/c/ | BGG cAA |
def e2G | gg/e/g/e/ dBz | gg/e/g/e/ dBz | cBd dgc/e/ | d2FG2 |]

